X:59
T:The Wreck off Scilly - Parsons
C:Taken down from James Parsons, by S.B.G. 1888.
%%VWML:SBG-1-1-263-0
F:http://www.vwml.org/record/SBG/1/1/263
Z:Original Sibleius Transcription by Martin and Shan Graebe
L:1/4
M:4/4
I:linebreak $
K:Bb
z2 z F | B G F E | D F B F | B c A G/F/ | B2 z F | B B B c | e d B c |$ B A G3/2 G/ | F2 z F | 
e d c3/2 c/ | d c B3/2 B/ | A B e d |$ c2 z F | B A c B | f e d c | d3/2 c/ B A | B2 z || 



